X: 10802
T: Dragon's Legs
R: reel
M: 4/4
K: Gdorian
|:d3c B2Bc|BAG2 G2AB|cBBA AGAB|A2AB cABc|
d3c B2Bc|BAG2 G2dc|B2AG "D"A2d2|G8:|
|:A2c2 F2FG|AGAB c2cc|B2BA B2c2|d4 c4|
d3c B2Bc|BAG2 G2dc|B2AG A2d2|G8:|

